X: 16
T: Road To Lisdoonvarna, The
Z: Shawn Cassady
S: https://thesession.org/tunes/249#setting47474
R: reel
M: 4/4
L: 1/8
K: Dmix
|:DA (3AAA ABcA|GE (3EEE GEcE|DA (3AAA ABcA|GBAG FDD2:|
|:defd cA (3AAA|BG (3GGG cA (3AAA|defd cA (3AAA|BdAG FDD2:|

